packages/katcn/src/icons/svg/text-1.svg

<svg width="24" height="25" viewBox="0 0 24 25" fill="none" xmlns="http://www.w3.org/2000/svg">
<g clip-path="url(#clip0_178_348)">
<path d="M22 16.268C21.4 16.268 21 16.668 21 17.268V19.968C21 21.068 20.1 22.068 18.9 22.068H16.2C15.6 22.068 15.2 22.468 15.2 23.068C15.2 23.668 15.6 24.068 16.2 24.068H18.9C21.1 24.068 23 22.268 23 19.968V17.268C23 16.668 22.6 16.268 22 16.268Z" fill="black"/>
<path d="M7.8 21.968H5.1C3.9 21.968 3 21.068 3 19.868V17.168C3 16.568 2.6 16.168 2 16.168C1.4 16.168 1 16.568 1 17.168V19.868C1 22.168 2.8 23.968 5.1 23.968H7.8C8.4 23.968 8.8 23.568 8.8 22.968C8.8 22.368 8.3 21.968 7.8 21.968Z" fill="black"/>
<path d="M2 9.76802C2.6 9.76802 3 9.36802 3 8.76802V6.06802C3 4.86802 3.9 3.96802 5.1 3.96802H7.8C8.4 3.96802 8.8 3.56802 8.8 2.96802C8.8 2.36802 8.4 1.96802 7.8 1.96802H5.1C2.8 1.96802 1 3.76802 1 6.06802V8.76802C1 9.26802 1.4 9.76802 2 9.76802Z" fill="black"/>
<path d="M18.9 1.96802H16.2C15.6 1.96802 15.2 2.36802 15.2 2.96802C15.2 3.56802 15.6 3.96802 16.2 3.96802H18.9C20.1 3.96802 21 4.86802 21 6.06802V8.76802C21 9.36802 21.4 9.76802 22 9.76802C22.6 9.76802 23 9.36802 23 8.76802V6.06802C23 3.76802 21.2 1.96802 18.9 1.96802Z" fill="black"/>
<path d="M18.2 10.868C18.8 10.868 19.2 10.468 19.2 9.86802V8.26802C19.2 7.26802 18.4 6.46802 17.4 6.46802H6.59999C5.59999 6.46802 4.79999 7.26802 4.79999 8.26802V9.96802C4.79999 10.568 5.19999 10.968 5.79999 10.968C6.39999 10.968 6.79999 10.568 6.79999 9.96802V8.46802H9.09999V18.168H7.99999C7.39999 18.168 6.99999 18.568 6.99999 19.168C6.99999 19.768 7.39999 20.168 7.99999 20.168H16C16.6 20.168 17 19.768 17 19.168C17 18.568 16.6 18.168 16 18.168H14.8V8.46802H17.1V9.86802C17.2 10.468 17.6 10.868 18.2 10.868ZM12.8 18.168H11.1V8.46802H12.8V18.168Z" fill="black"/>
</g>
<defs>
<clipPath id="clip0_178_348">
<rect width="24" height="24" fill="white" transform="translate(0 0.968018)"/>
</clipPath>
</defs>
</svg>

<svg xmlns="http://www.w3.org/2000/svg" fill="none" viewBox="0 0 24 25"><g fill="#000" clip-path="url(#a)"><path d="M22 16.268c-.6 0-1 .4-1 1v2.7c0 1.1-.9 2.1-2.1 2.1h-2.7c-.6 0-1 .4-1 1s.4 1 1 1h2.7c2.2 0 4.1-1.8 4.1-4.1v-2.7c0-.6-.4-1-1-1m-14.2 5.7H5.1c-1.2 0-2.1-.9-2.1-2.1v-2.7c0-.6-.4-1-1-1s-1 .4-1 1v2.7c0 2.3 1.8 4.1 4.1 4.1h2.7c.6 0 1-.4 1-1s-.5-1-1-1M2 9.768c.6 0 1-.4 1-1v-2.7c0-1.2.9-2.1 2.1-2.1h2.7c.6 0 1-.4 1-1s-.4-1-1-1H5.1c-2.3 0-4.1 1.8-4.1 4.1v2.7c0 .5.4 1 1 1m16.9-7.8h-2.7c-.6 0-1 .4-1 1s.4 1 1 1h2.7c1.2 0 2.1.9 2.1 2.1v2.7c0 .6.4 1 1 1s1-.4 1-1v-2.7c0-2.3-1.8-4.1-4.1-4.1"/><path d="M18.2 10.868c.6 0 1-.4 1-1v-1.6c0-1-.8-1.8-1.8-1.8H6.6c-1 0-1.8.8-1.8 1.8v1.7c0 .6.4 1 1 1s1-.4 1-1v-1.5h2.3v9.7H8c-.6 0-1 .4-1 1s.4 1 1 1h8c.6 0 1-.4 1-1s-.4-1-1-1h-1.2v-9.7h2.3v1.4c.1.6.5 1 1.1 1m-5.4 7.3h-1.7v-9.7h1.7z"/></g><defs><clipPath id="a"><path fill="#fff" d="M0 .968h24v24H0z"/></clipPath></defs></svg>
